X:1
T:BWV 0777
T:Invention 6    (A = 415 Hz)
T:Johann Sebastian Bach
%%score { 1 | 2 }
L:1/8
Q:1/4=72
M:3/8
K:E
V:1 treble 
V:2 bass 
V:1
"^Adagio" z/ ed=d/- | d/cBA/- | A/GFG/4A/4 | G/B/4A/4B/G/4F/4G/E/4D/4 | EFG | ABc | de/d/c/B/ | %7
 eE z | z/ gec/- | c/e/4d/4e/c/^A/F/- | F/fdB/- | B/d/4c/4d/B/G/E/- | E/ec^A/- | A/gfe/- | e/dcB/ | %15
 ^A/E/4D/4E/A/4G/4A/B/4A/4 | B/D/C/B/C/^A/ | B z/ B/d/f/ | b z/ b/f/d/ | B/F/D/B,/ z | z/ ed=d/- | %21
 d/cBA/- | A/GFG/4A/4 | G/B/4A/4B/G/4F/4G/E/4D/4 | EFG | ABc | de/d/c/B/ | eE z | z/ gec/- | %29
 c/e/4d/4e/c/^A/F/- | F/fdB/- | B/d/4c/4d/B/G/E/- | E/ec^A/- | A/gfe/- | e/dcB/ | %35
 ^A/E/4D/4E/A/4G/4A/B/4A/4 | B/D/C/B/C/^A/ | B z/ B/d/f/ | b z/ b/f/d/ | B/F/D/B,/ z | B,CD | EFG | %42
 ^AB/A/G/F/ | BB, z | z/ b^a=a/- | a/gfe/- | e/dcd/4e/4 | d/f/4e/4f/d/4c/4d/B/4^A/4 | %48
 B/d/4c/4d/g/4^^f/4g/c/4B/4 | c/e/4d/4e/^a/4g/4a/d/4c/4 | d/g/4^^f/4g/b/4^a/4b/d/4^^c/4 | %51
 d/^a/4g/4a/^^f/4^e/4^^f/d/4^^c/4 | d/=agf/- | f/e/4d/4e/c/4^B/4c/e/4d/4 | e/gfe/- | %55
 e/d/4c/4d/B/4^A/4B/c/4B/4 | c/edc/- | c/B/4^A/4B/G/4^^F/4G/=A/4G/4 | A/c/4B/4c/A/4G/4A/e/4d/4 | %59
 e/^^F/4^E/4F/^A/4G/4A/B,/4^A,/4 | B,/G/E/C/^A,/^^F/ | G/D/B,/G,/ z | EFG | ABc | de/d/c/B/ | %65
 e-e/B/4A/4B/G/4F/4 | G/ed^^c/- | c/^cBA/- | A/GFG/4A/4 | G/B/4A/4B/G/4F/4G/E/4D/4 | EFA | Bdf | %72
 DEG | Ace | CFA | Bcd | ecA | f3- | f/e/d/c/B/A/ | G/E/4D/4E/G/4F/4G/B/4A/4 | %80
 B/G/4F/4G/B/4A/4B/e/4d/4 | e/B/G/E/ z | B,CD | EFG | ^AB/A/G/F/ | BB, z | z/ b^a=a/- | a/gfe/- | %88
 e/dcd/4e/4 | d/f/4e/4f/d/4c/4d/B/4^A/4 | B/d/4c/4d/g/4^^f/4g/c/4B/4 | c/e/4d/4e/^a/4g/4a/d/4c/4 | %92
 d/g/4^^f/4g/b/4^a/4b/d/4^^c/4 | d/^a/4g/4a/^^f/4^e/4^^f/d/4^^c/4 | d/=agf/- | %95
 f/e/4d/4e/c/4^B/4c/e/4d/4 | e/gfe/- | e/d/4c/4d/B/4^A/4B/c/4B/4 | c/edc/- | %99
 c/B/4^A/4B/G/4^^F/4G/=A/4G/4 | A/c/4B/4c/A/4G/4A/e/4d/4 | e/^^F/4^E/4F/^A/4G/4A/B,/4^A,/4 | %102
 B,/G/E/C/^A,/^^F/ | G/D/B,/G,/ z | EFG | ABc | de/d/c/B/ | e-e/B/4A/4B/G/4F/4 | G/ed^^c/- | %109
 c/^cBA/- | A/GFG/4A/4 | G/B/4A/4B/G/4F/4G/E/4D/4 | EFA | Bdf | DEG | Ace | CFA | Bcd | ecA | f3- | %120
 f/e/d/c/B/A/ | G/E/4D/4E/G/4F/4G/B/4A/4 | B/G/4F/4G/B/4A/4B/e/4d/4 | e/B/G/E/ z |] %124
V:2
 E,F,G, | A,B,C | DE/D/C/B,/ | EE, z | z/ E,D,=D,/- | D,/C,B,,A,,/- | A,,/G,,F,,G,,/4A,,/4 | %7
 G,,/B,,/4A,,/4B,,/G,,/4F,,/4G,,/E,,/4D,,/4 | E,,C,E, | F,^A,C | D,,B,,D, | E,G,B, | C,,C,E, | %13
 F,G,^A, | B,E,G, | F,/C/^A,/C/E,/C/ | D,E,F, | B,,/B,/4^A,/4B,/F,/4E,/4F,/D,/4C,/4 | %18
 D,/F,/4E,/4F,/D,/4C,/4D,/B,,/4^A,,/4 | B,,2 B,,, | E,F,G, | A,B,C | DE/D/C/B,/ | EE, z | %24
 z/ E,D,=D,/- | D,/C,B,,A,,/- | A,,/G,,F,,G,,/4A,,/4 | G,,/B,,/4A,,/4B,,/G,,/4F,,/4G,,/E,,/4D,,/4 | %28
 E,,C,E, | F,^A,C | D,,B,,D, | E,G,B, | C,,C,E, | F,G,^A, | B,E,G, | F,/C/^A,/C/E,/C/ | D,E,F, | %37
 B,,/B,/4^A,/4B,/F,/4E,/4F,/D,/4C,/4 | D,/F,/4E,/4F,/D,/4C,/4D,/B,,/4^A,,/4 | B,,2 B,,, | %40
 z/ B,^A,=A,/- | A,/G,F,E,/- | E,/D,C,D,/4E,/4 | D,/F,/4E,/4F,/D,/4C,/4D,/B,,/4^A,,/4 | B,,C,D, | %45
 E,F,G, | ^A,B,/A,/G,/F,/ | B,B,, z | G,B,D | ^^F,^A,D | G,B,D | D,DC | ^B,CD | G,C=B, | ^A,B,C | %55
 F,B,D | ^^F,G,^A, | D,G,B, | C, z C- | C^A,^^F, | G,C,D, | G,, z/ G,,/G,/F,/- | F,/E,D,^^C,/- | %63
 C,/^C,B,,A,,/- | A,,/G,,F,,G,,/4A,,/4 | G,,/B,,/4A,,/4B,,/G,,/4F,,/4G,,/E,,/4D,,/4 | E,,F,,G,, | %67
 A,,B,,C, | D,E,/D,/C,/B,,/ | E,-E,/B,/4A,/4B,/G,/4F,/4 | G,/CA,F,/- | F,/A,/4G,/4A,/F,/D,/B,,/- | %72
 B,,/B,G,E,/- | E,/G,/4F,/4G,/E,/C,/A,,/- | A,,/A,F,D,/- | D,/CB,A,/- | A,/G,F,E,/ | %77
 D,/A,/4G,/4A,/D,/4C,/4D,/G,/4F,/4 | G,A,B, | E, z/ E/B,/G,/ | E,/B,/G,/E,/B,,/G,,/ | E,,2 E, | %82
 z/ B,^A,=A,/- | A,/G,F,E,/- | E,/D,C,D,/4E,/4 | D,/F,/4E,/4F,/D,/4C,/4D,/B,,/4^A,,/4 | B,,C,D, | %87
 E,F,G, | ^A,B,/A,/G,/F,/ | B,B,, z | G,B,D | ^^F,^A,D | G,B,D | D,DC | ^B,CD | G,C=B, | ^A,B,C | %97
 F,B,D | ^^F,G,^A, | D,G,B, | C, z C- | C^A,^^F, | G,C,D, | G,, z/ G,,/G,/F,/- | F,/E,D,^^C,/- | %105
 C,/^C,B,,A,,/- | A,,/G,,F,,G,,/4A,,/4 | G,,/B,,/4A,,/4B,,/G,,/4F,,/4G,,/E,,/4D,,/4 | E,,F,,G,, | %109
 A,,B,,C, | D,E,/D,/C,/B,,/ | E,-E,/B,/4A,/4B,/G,/4F,/4 | G,/CA,F,/- | F,/A,/4G,/4A,/F,/D,/B,,/- | %114
 B,,/B,G,E,/- | E,/G,/4F,/4G,/E,/C,/A,,/- | A,,/A,F,D,/- | D,/CB,A,/- | A,/G,F,E,/ | %119
 D,/A,/4G,/4A,/D,/4C,/4D,/G,/4F,/4 | G,A,B, | E, z/ E/B,/G,/ | E,/B,/G,/E,/B,,/G,,/ | E,,2 E, |] %124

